Papirus-Adapta/16x16/panel/crow-translate-tray.svg

<svg xmlns="http://www.w3.org/2000/svg" width="16" height="16" version="1.1">
 <defs>
  <style id="current-color-scheme" type="text/css">
   .ColorScheme-Text { color:#cfd8dc; } .ColorScheme-Highlight { color:#00bcd4; }
  </style>
 </defs>
 <path style="opacity:0.3;fill:currentColor" class="ColorScheme-Text" d="M 8 1 A 7 7 0 0 0 1 8 A 7 7 0 0 0 8 15 A 7 7 0 0 0 15 8 A 7 7 0 0 0 8 1 z M 8 3 A 5 5 0 0 1 13 8 A 5 5 0 0 1 8 13 A 5 5 0 0 1 3 8 A 5 5 0 0 1 8 3 z"/>
 <path style="fill:currentColor" class="ColorScheme-Text" d="m 10.003963,1.000015 c -0.01721,0.096098 -0.02858,0.1448837 -0.04922,0.244414 -0.03613,0.163024 -0.05553,0.2454725 -0.10371,0.4084963 0.141092,0.7790828 0.144222,1.5812872 0.0668,2.3655181 -0.01768,0.1786807 -0.04321,0.357015 -0.07558,0.5349763 -0.01686,0.040336 0.3357387,0.032474 0.3357387,0.032474 0.02663,-0.1848002 0.04595,-0.3694919 0.05449,-0.5520682 0.04646,-1.0158966 0.04163,-2.0385071 -0.228515,-3.0338105 z M 9.8246693,4.5944402 C 9.4813909,4.8906619 9.1346128,5.2046689 8.8772148,5.5618414 8.256577,6.4246846 7.861308,7.5152456 7.0596509,8.2606513 6.7338176,8.5624015 6.3541644,8.8255202 5.9645423,9.0571333 6.1696974,9.0864844 6.3974667,9.1064456 6.6026238,9.0657094 6.1888646,9.3201584 5.7258867,9.5622378 5.3879843,9.9015029 5.2207571,10.067873 5.0473091,10.237947 4.8852538,10.410841 c 0.1310236,-0.0783 0.284358,-0.167546 0.4429654,-0.16921 0.2620467,-0.0032 0.7646425,-0.285434 0.7646424,-0.285434 0,0 -0.9462711,0.591861 -1.3341693,0.958855 -0.2206709,0.208779 -0.4695357,0.407936 -0.6591746,0.646074 -0.1706769,0.215284 0.025916,0.21023 0.025916,0.21023 0.3189384,-0.114177 0.4429441,-0.23239 0.7773985,-0.302527 -0.1344715,0.0473 -0.1995444,0.07047 -0.3357395,0.114516 -0.2965268,0.114177 -0.4360817,0.200011 -0.6895086,0.343547 -0.4568579,0.259343 -0.909729,0.925171 -1.2269437,1.363933 -0.1689512,0.231615 -0.4474275,0.428446 -0.585347,0.666585 -0.079303,0.137011 -0.071698,0.280316 -0.052734,0.3162 0.1396432,0.249555 0.8371862,0.460727 1.2199123,0.552067 0.4603059,0.107652 0.9444459,0.156397 1.4185437,0.174338 0.2810105,-0.05709 0.5718259,-0.169882 0.7787049,-0.362347 0.2810107,-0.260977 0.6869617,-0.513543 0.8490168,-0.851178 0.093095,-0.190837 0.2356777,-0.3027 0.2408184,-0.305944 -0.2120508,0.340898 -0.4443855,0.671325 -0.6960882,0.984493 -0.1206795,0.148429 -0.2865213,0.33671 -0.2865213,0.33671 0.2810106,-0.09786 0.5749359,-0.258485 0.8507746,-0.302527 0.1706759,-0.02773 0.3594036,-0.104757 0.4904264,-0.222195 0.1396429,-0.125593 0.3504779,-0.17538 0.4746059,-0.304235 0.3430736,-0.357207 0.5741918,-0.901614 0.9017506,-1.276764 0.041373,-0.0473 0.1403531,-0.170634 0.216209,-0.271761 0.060345,-0.08155 0.1089837,-0.150409 0.1089837,-0.150409 -0.1741225,0.383305 -0.3483162,0.773268 -0.5414025,1.145156 -0.00171,0.0033 -0.0018,0.007 -0.00351,0.01025 -0.058617,0.102759 -0.1459015,0.202718 -0.2355452,0.29569 -0.012078,0.01304 -0.023085,0.02454 -0.035154,0.0376 -0.015507,0.01629 -0.00648,0.01648 0.017577,0.0034 0.3499704,-0.17942 0.6587022,-0.45299 0.9931567,-0.668293 0.010341,-0.0065 0.021276,-0.01219 0.028125,-0.01709 0.2499793,-0.140273 0.4711913,-0.38897 0.6556584,-0.587962 0.1741234,-0.187574 0.2628241,-0.301661 0.3093726,-0.56916 0.00171,-0.0081 0.0018,-0.01577 0.00351,-0.02392 0.056889,-0.386567 0.1176697,-0.772106 0.2021466,-1.155411 0.017235,-0.07992 0.030087,-0.14786 0.040428,-0.201686 0,-0.0065 0.0018,-0.01573 0.0035,-0.02222 0.0017,-0.01304 0.0053,-0.02618 0.007,-0.03761 0.0017,-0.0065 0.0018,-0.0123 0.0035,-0.0188 0.0017,-0.01142 0.0036,-0.02089 0.0053,-0.02905 v -0.0017 c 0,-0.0049 0.0036,-0.02256 0.0053,-0.02905 0.0034,-0.01794 0.02637,-0.08204 0.02637,-0.08204 v 0.02564 0.01538 c -0.01383,0.676901 -0.1262196,1.406055 -0.01934,2.071537 0.07931,0.492588 0.124804,0.391405 0.124804,0.391405 0.04655,-0.580666 -0.01549,-1.286688 0.181053,-1.815159 0.132747,-0.357208 0.345883,-0.744839 0.41484,-1.1297739 0.07067,-0.3947231 0.06835,-0.8158524 0.058,-1.2203618 -0.01378,-0.5235779 -0.04723,-1.0505075 -0.124804,-1.5724542 0.0724,0.247925 0.177803,0.5078487 0.1916,0.7622986 0.01378,0.2413995 0.02128,0.4903677 0.02812,0.7366608 C 10.97799,8.283754 11.022408,7.960484 10.98792,7.6522082 10.95512,7.3684003 11.0119,7.0782374 10.97912,6.7993221 10.93602,6.4339676 10.92387,6.0391538 10.796291,5.6917326 10.673886,5.3524671 10.315038,5.0139524 10.221942,4.6730558 10.213242,4.6416068 10.191232,4.6160908 10.165692,4.5944328 10.030451,5.525936 9.7019162,6.4740492 9.4010494,7.3428106 9.0207961,8.4427931 8.4113298,9.3727644 7.8383663,10.369785 7.3118587,11.284434 6.6776082,12.057576 5.8568757,12.707956 5.1411008,13.27425 4.3496131,13.706584 3.4979096,14.018904 c -0.2649744,0.0961 -0.5615258,0.129865 -0.8419856,0.138444 -0.2064737,0.0052 -0.3534664,-0.0068 -0.3603488,-0.0068 C 2.9046722,14.023535 3.5218906,13.84069 4.0621631,13.530086 5.5608169,12.666917 6.7728061,11.485075 7.6520399,9.9783913 8.2112388,9.0225562 8.7392872,8.0836754 9.1074978,7.0334575 9.3828425,6.2444667 9.6689387,5.4243467 9.8246793,4.5944444 Z"/>
</svg>

<svg xmlns="http://www.w3.org/2000/svg" width="16" height="16" version="1.1">
 <defs>
  <style id="current-color-scheme" type="text/css">
   .ColorScheme-Text { color:#dfdfdf; } .ColorScheme-Highlight { color:#4285f4; } .ColorScheme-NeutralText { color:#ff9800; } .ColorScheme-PositiveText { color:#4caf50; } .ColorScheme-NegativeText { color:#f44336; }
  </style>
 </defs>
 <path style="opacity:.35;fill:currentColor" class="ColorScheme-Text" d="M 8,1 A 7,7 0 0 0 1,8 7,7 0 0 0 8,15 7,7 0 0 0 15,8 7,7 0 0 0 8,1 Z M 8,3 A 5,5 0 0 1 13,8 5,5 0 0 1 8,13 5,5 0 0 1 3,8 5,5 0 0 1 8,3 Z"/>
 <path style="fill:currentColor" class="ColorScheme-Text" d="M 10.004,1 C 10.004,1 9.9754,1.1449 9.9547,1.2444 9.9186,1.4075 9.851,1.6529 9.851,1.6529 9.9921,2.432 9.9953,3.2342 9.9178,4.0184 L 9.8423,4.5534 10.178,4.5859 10.232,4.0338 C 10.279,3.0179 10.274,1.9953 10.004,1 Z M 9.8247,4.5944 C 9.4814,4.8907 9.1346,5.2047 8.8772,5.5618 8.2566,6.4247 7.8613,7.5152 7.0597,8.2607 6.7338,8.5624 6.3542,8.8255 5.9645,9.0571 6.1697,9.0865 6.3975,9.1064 6.6026,9.0657 6.6026,9.0657 5.7259,9.5622 5.388,9.9015 5.2208,10.068 5.0473,10.238 4.8853,10.411 5.0163,10.333 5.1696,10.243 5.3282,10.242 5.5903,10.238 6.0929,9.9562 6.0929,9.9562 6.0929,9.9562 5.1466,10.548 4.7587,10.915 4.538,11.124 4.2892,11.323 4.0995,11.561 3.9288,11.776 4.1254,11.771 4.1254,11.771 4.4444,11.657 4.5684,11.539 4.9028,11.469 4.7684,11.516 4.131,11.783 3.8776,11.927 3.4207,12.186 2.9679,12.852 2.6506,13.291 2.4817,13.522 2.2032,13.719 2.0653,13.957 1.986,14.094 1.9936,14.238 2.0126,14.274 2.1522,14.523 2.8497,14.734 3.2325,14.826 3.6928,14.933 4.1769,14.982 4.651,15 4.932,14.943 5.2228,14.83 5.4297,14.638 5.7107,14.377 6.1167,14.124 6.2787,13.786 6.3718,13.596 6.5144,13.484 6.5196,13.481 6.3075,13.821 6.0752,14.152 5.8235,14.465 5.7028,14.613 5.5369,14.802 5.5369,14.802 5.818,14.704 6.1119,14.543 6.3877,14.499 6.5584,14.471 6.7471,14.394 6.8781,14.277 7.0178,14.151 7.2286,14.102 7.3528,13.973 7.6958,13.616 7.9269,13.071 8.2545,12.696 L 8.4707,12.424 8.5797,12.274 C 8.5797,12.274 8.2314,13.047 8.0383,13.419 L 8.0348,13.429 C 7.9762,13.532 7.8889,13.632 7.7992,13.725 L 7.7641,13.763 7.7817,13.766 C 8.1316,13.587 8.4404,13.313 8.7748,13.098 L 8.8029,13.081 C 9.0529,12.94 9.2741,12.692 9.4586,12.493 9.6327,12.305 9.7214,12.191 9.768,11.923 L 10.039,10.404 10.065,10.322 V 10.363 C 10.051,11.04 9.9388,11.769 10.046,12.435 10.125,12.927 10.17,12.826 10.17,12.826 10.217,12.245 10.155,11.539 10.352,11.011 10.484,10.654 10.697,10.266 10.766,9.881 10.837,9.4863 10.835,9.0651 10.824,8.6606 10.811,8.1371 10.777,7.6101 10.7,7.0882 10.772,7.3361 10.877,7.596 10.891,7.8505 10.905,8.0919 10.919,8.5871 10.919,8.5871 10.978,8.2838 11.022,7.9605 10.988,7.6522 10.955,7.3684 11.012,7.0782 10.979,6.7993 10.936,6.434 10.924,6.0392 10.796,5.6917 10.674,5.3525 10.315,5.014 10.222,4.6731 L 10.166,4.5944 C 10.03,5.5259 9.7019,6.474 9.401,7.3428 9.0208,8.4428 8.4113,9.3728 7.8384,10.37 7.3119,11.284 6.6776,12.058 5.8569,12.708 5.1411,13.274 4.3496,13.707 3.4979,14.019 3.2329,14.115 2.9364,14.149 2.6559,14.157 2.4495,14.163 2.2956,14.151 2.2956,14.151 2.9047,14.024 3.5219,13.841 4.0622,13.53 5.5608,12.667 6.7728,11.485 7.652,9.9784 8.2112,9.0226 8.7393,8.0837 9.1075,7.0335 9.3828,6.2445 9.6689,5.4243 9.8247,4.5944 Z"/>
</svg>
